original/processed/putty.svg

<?xml version="1.0" encoding="UTF-8" standalone="no"?>
<svg
   xmlns:dc="http://purl.org/dc/elements/1.1/"
   xmlns:cc="http://creativecommons.org/ns#"
   xmlns:rdf="http://www.w3.org/1999/02/22-rdf-syntax-ns#"
   xmlns:svg="http://www.w3.org/2000/svg"
   xmlns="http://www.w3.org/2000/svg"
   style="display: block;"
   height="514"
   width="515"
   version="1.1"
   id="svg">
  <metadata
     id="metadata9">
    <rdf:RDF>
      <cc:Work
         rdf:about="">
        <dc:format>image/svg+xml</dc:format>
        <dc:type
           rdf:resource="http://purl.org/dc/dcmitype/StillImage" />
        <dc:title></dc:title>
      </cc:Work>
    </rdf:RDF>
  </metadata>
  <defs
     id="defs7" />
  <g
     id="svgg">
    <path
       style="fill:#000000;fill-rule:evenodd;stroke:none"
       d="M 255.206,17.25 255.5,24.5 348.25,24.755 441,25.01 V 102.505 180 h -7.393 c -8.591,0 -8.607,0.017 -8.607,9.589 v 6.425 L 355.75,195.757 286.5,195.5 286.206,188.25 285.912,181 H 278.456 271 v 7.458 7.458 l -7.75,0.292 -7.75,0.292 -0.294,7.238 -0.293,7.238 38.793,0.262 38.794,0.262 0.293,7.793 0.293,7.793 7.207,-0.293 7.207,-0.293 0.292,-7.75 0.292,-7.75 h 38.414 38.414 l 0.294,-7.25 0.294,-7.25 6.958,-0.3 c 9.034,-0.39 9.542,-0.896 9.542,-9.482 v -7.036 l 22.5,0.632 22.5,0.633 V 172.973 165 H 472 457 V 95 25 H 449.5 442 V 17.5 10 h -93.544 -93.544 l 0.294,7.25 M 240,32.5 V 40 h 7.5 7.5 V 32.5 25 h -7.5 -7.5 v 7.5 m -14.848,8.817 c -0.868,1.046 -1.1,18.864 -0.909,69.794 L 224.5,179.5 h 15 15 v -7 -7 l -7.742,-0.292 -7.743,-0.292 -0.257,-62.208 L 238.5,40.5 232.409,40.206 c -4.303,-0.207 -6.434,0.119 -7.257,1.111 M 272,70.954 c -1.3,0.749 -1.464,6.008 -1.227,39.455 L 271.046,149 h 7.477 7.477 v -7.5 c 0,-6.461 0.242,-7.505 1.75,-7.539 0.962,-0.022 7.825,-0.135 15.25,-0.25 l 13.5,-0.211 0.294,-7.25 -0.091,-8.79005 L 333.00001,117 v -7.5 -7.5 h 7.5 7.5 v 7.5 7.5 l -0.429,2 H 333 v 7.5 7.5 h -7.5 -7.5 v 7.458 7.458 l -7.75,0.292 -7.75,0.292 -0.294,7.25 -0.294,7.25 h 46.554 46.554 L 394.76,117.25 394.5,70.5 334,70.295 c -33.275,-0.112 -61.175,0.184 -62,0.659 m -16.294,78.673 c -0.388,0.388 -0.706,3.781 -0.706,7.54 V 164 h 8.044 8.044 l -0.294,-7.25 -0.294,-7.25 -7.044,-0.29 c -3.874,-0.159 -7.361,0.029 -7.75,0.417 m 30.711,16.728 c -0.286,0.746 -0.384,4.233 -0.218,7.75 l 0.301,6.395 7.25,0.294 7.25,0.294 V 173.044 165 h -7.031 c -4.994,0 -7.182,0.393 -7.552,1.355 m -77.211,21.895 0.294,7.25 h 7 7 l 0.294,-7.25 0.294,-7.25 h -7.588 -7.588 l 0.294,7.25 M 488,211.542 v 30.542 l 7.75,-0.292 7.75,-0.292 0.265,-30.25 0.264,-30.25 H 496.015 488 v 30.542 M 193.667,196.667 c -0.367,0.366 -0.667,3.741 -0.667,7.5 V 211 h 7.5 7.5 v -7.5 -7.5 h -6.833 c -3.759,0 -7.134,0.3 -7.5,0.667 m -30.466,15.188 c -0.913,0.579 -1.211,2.882 -1,7.735 l 0.299,6.91 h 15 15 l 0.299,-6.91 c 0.378,-8.729 0.682,-8.559 -15.299,-8.559 -7.15,0 -13.585,0.371 -14.299,0.824 M 84.419,228.35 c -0.29,0.756 -0.39,4.024 -0.223,7.262 L 84.5,241.5 h 38.5 38.5 v -7 -7 l -38.277,-0.262 c -31.717,-0.217 -38.367,-0.026 -38.804,1.112 m 218.006,-0.015 c -0.293,0.764 -0.396,4.039 -0.229,7.277 l 0.304,5.888 h 15 15 v -7 -7 l -14.771,-0.277 c -11.871,-0.222 -14.876,-0.004 -15.304,1.112 m 170.242,14.332 c -0.367,0.366 -0.667,3.966 -0.667,8 V 258 h -7.5 -7.5 v 7.393 c 0,8.535 0.076,8.607 9.082,8.607 H 472 v -8 -8 h 7.5 7.5 v -8 -8 h -6.833 c -3.759,0 -7.134,0.3 -7.5,0.667 M 69,250.544 v 7.544 l 7.25,-0.294 7.25,-0.294 0.294,-7.25 0.294,-7.25 H 76.544 69 v 7.544 m 93.206,-0.294 0.294,7.25 23,0.5 23,0.5 0.5,7.5 0.5,7.5 h 7 7 l 0.291,-7.707 0.292,-7.707 7.208,-0.293 7.209,-0.293 0.294,-7.25 0.294,-7.25 H 200.5 161.912 l 0.294,7.25 m 124.461,-6.583 c -0.367,0.366 -0.667,3.741 -0.667,7.5 V 258 h -7.458 -7.458 l -0.292,7.75 -0.292,7.75 -15.25,0.276 -15.25,0.276 v 7.474 7.474 h 13.918 c 7.655,0 14.63,0.273 15.5,0.607 1.416,0.543 1.582,6.279 1.582,54.5 V 398 h -8 -8 v 7.5 7.5 H 162.006 69.012 L 68.756,335.75 68.5,258.5 61.25,258.206 54,257.912 V 327.956 398 h -8 -8 v 7.5 7.5 h 6.8 c 8.428,0 9.2,0.73 9.2,8.7 V 428 H 154.5 255 v -7.5 -7.5 h 8 8 v -7.5 -7.5 h 23 23 v 30.958 30.958 l -7.75,0.292 -7.75,0.292 -0.293,7.207 -0.293,7.207 -7.207,0.293 -7.207,0.293 v 7.5 7.5 h 7 7 l 0.292,-7.75 0.292,-7.75 h 7.958 7.958 v -7.5 -7.5 h 8 8 v -31 -31 h -8 -8 V 390.5 383 H 301.5 286 v -47 -47 h 85.5 85.5 v -7.5 -7.5 h -84.3 c -95.161,0 -86.7,0.898 -86.7,-9.2 V 258 h 7.5 7.5 v -7.5 -7.5 h -6.833 c -3.759,0 -7.134,0.3 -7.5,0.667 M 348,250.5 v 7.5 h 30.876 30.876 l 0.474,-5.715 C 411.069,242.123 414.029,243 378.883,243 H 348 v 7.5 m -155.113,24.25 c -0.062,0.413 -0.175,3.675 -0.25,7.25 l -0.137,6.5 -7.175,0.292 L 177,289 v 7.5 7.5 l 8.25,0.174 7.75,-0.326 V 296.424 289 h 7.5 7.5 v -7.5 -7.5 h -7.5 c -4.125,0 -7.551,0.337 -7.613,0.75 M 99,335 l 0.192507,47.54005 c 0,0 36.965043,0.28084 55.557493,0.21695 L 223.5,382.5 V 344 305.5 l -7.207,-0.293 -7.207,-0.293 -0.293,7.793 -0.293,7.793 -15.25,0.276 -15.25,0.276 -0.201,15.224 c 0,0 0,0 -8.417,-0.276 h -7.534 l 0.326,8.014 c 0.259,6.359 0.051,7.907 -1.006,7.5 -0.732,-0.283 -4.445,-0.514 -8.25,-0.514 H 146 v -7.458 -7.458 l 7.75,-0.292 7.75,-0.292 0.291,-7.707 0.292,-7.707 7.208,-0.293 7.209,-0.293 v -7 L 177,304 v 0 -7.5 -7.5 H 138 99 v 46 m 125.706,-45.373 c -0.388,0.388 -0.706,3.781 -0.706,7.54 V 304 h 8.044 8.044 l -0.294,-7.25 -0.294,-7.25 -7.044,-0.29 c -3.874,-0.159 -7.361,0.029 -7.75,0.417 M 23.25,413.662 C 22.419,413.998 22,416.486 22,421.083 V 428 h 7.5 7.5 v -7.5 -7.5 l -6.25,0.079 c -3.437,0.043 -6.812,0.306 -7.5,0.583 M 7.235,460.25 7.5,490.5 l 4.934,0.312 c 2.713,0.172 5.976,0.051 7.25,-0.269 L 22,489.962 V 459.981 430 H 14.485 6.971 l 0.264,30.25 m 169.973,7.5 0.292,7.75 h 31 31 l 0.292,-7.75 0.292,-7.75 H 208.5 176.916 l 0.292,7.75 m -147.501,23.994 -7.793,0.342 0.293,7.207 0.293,7.207 H 154 285.5 l 0.292,-7.75 0.292,-7.75 -124.292,0.201 c -68.361,0.111 -127.799,0.355 -132.085,0.543"
       id="path0" />
  </g>
</svg>

<svg id="svg" version="1.1" width="515" height="514" xmlns="http://www.w3.org/2000/svg" xmlns:xlink="http://www.w3.org/1999/xlink" style="display: block;"><g id="svgg"><path id="path0" d="M0.492 259.500 C 0.492 399.750,0.608 456.976,0.750 386.670 C 0.892 316.363,0.892 201.613,0.750 131.670 C 0.608 61.726,0.492 119.250,0.492 259.500 M255.206 17.250 L 255.500 24.500 348.250 24.755 L 441.000 25.010 441.000 102.505 L 441.000 180.000 433.607 180.000 C 425.016 180.000,425.000 180.017,425.000 189.589 L 425.000 196.014 355.750 195.757 L 286.500 195.500 286.206 188.250 L 285.912 181.000 278.456 181.000 L 271.000 181.000 271.000 188.458 L 271.000 195.916 263.250 196.208 L 255.500 196.500 255.206 203.738 L 254.913 210.976 293.706 211.238 L 332.500 211.500 332.793 219.293 L 333.086 227.086 340.293 226.793 L 347.500 226.500 347.792 218.750 L 348.084 211.000 386.498 211.000 L 424.912 211.000 425.206 203.750 L 425.500 196.500 432.458 196.200 C 441.492 195.810,442.000 195.304,442.000 186.718 L 442.000 179.682 464.500 180.314 L 487.000 180.947 487.000 172.973 L 487.000 165.000 472.000 165.000 L 457.000 165.000 457.000 95.000 L 457.000 25.000 449.500 25.000 L 442.000 25.000 442.000 17.500 L 442.000 10.000 348.456 10.000 L 254.912 10.000 255.206 17.250 M240.000 32.500 L 240.000 40.000 247.500 40.000 L 255.000 40.000 255.000 32.500 L 255.000 25.000 247.500 25.000 L 240.000 25.000 240.000 32.500 M225.152 41.317 C 224.284 42.363,224.052 60.181,224.243 111.111 L 224.500 179.500 239.500 179.500 L 254.500 179.500 254.500 172.500 L 254.500 165.500 246.758 165.208 L 239.015 164.916 238.758 102.708 L 238.500 40.500 232.409 40.206 C 228.106 39.999,225.975 40.325,225.152 41.317 M272.000 70.954 C 270.700 71.703,270.536 76.962,270.773 110.409 L 271.046 149.000 278.523 149.000 L 286.000 149.000 286.000 141.500 C 286.000 135.039,286.242 133.995,287.750 133.961 C 288.712 133.939,295.575 133.826,303.000 133.711 L 316.500 133.500 316.794 126.250 L 317.088 119.000 301.985 119.000 C 291.574 119.000,287.086 118.670,287.539 117.937 C 287.961 117.255,293.440 116.922,302.848 117.007 C 310.907 117.080,320.988 117.108,325.250 117.070 L 333.000 117.000 333.000 109.500 L 333.000 102.000 340.500 102.000 L 348.000 102.000 348.000 109.500 L 348.000 117.000 355.500 117.000 L 363.000 117.000 363.000 101.941 C 363.000 92.156,363.350 87.098,364.000 87.500 C 365.680 88.538,365.291 115.852,363.571 117.571 C 362.464 118.679,358.867 119.000,347.571 119.000 L 333.000 119.000 333.000 126.500 L 333.000 134.000 325.500 134.000 L 318.000 134.000 318.000 141.458 L 318.000 148.916 310.250 149.208 L 302.500 149.500 302.206 156.750 L 301.912 164.000 348.466 164.000 L 395.020 164.000 394.760 117.250 L 394.500 70.500 334.000 70.295 C 300.725 70.183,272.825 70.479,272.000 70.954 M255.706 149.627 C 255.318 150.015,255.000 153.408,255.000 157.167 L 255.000 164.000 263.044 164.000 L 271.088 164.000 270.794 156.750 L 270.500 149.500 263.456 149.210 C 259.582 149.051,256.095 149.239,255.706 149.627 M286.417 166.355 C 286.131 167.101,286.033 170.588,286.199 174.105 L 286.500 180.500 293.750 180.794 L 301.000 181.088 301.000 173.044 L 301.000 165.000 293.969 165.000 C 288.975 165.000,286.787 165.393,286.417 166.355 M209.206 188.250 L 209.500 195.500 216.500 195.500 L 223.500 195.500 223.794 188.250 L 224.088 181.000 216.500 181.000 L 208.912 181.000 209.206 188.250 M488.000 211.542 L 488.000 242.084 495.750 241.792 L 503.500 241.500 503.765 211.250 L 504.029 181.000 496.015 181.000 L 488.000 181.000 488.000 211.542 M193.667 196.667 C 193.300 197.033,193.000 200.408,193.000 204.167 L 193.000 211.000 200.500 211.000 L 208.000 211.000 208.000 203.500 L 208.000 196.000 201.167 196.000 C 197.408 196.000,194.033 196.300,193.667 196.667 M163.201 211.855 C 162.288 212.434,161.990 214.737,162.201 219.590 L 162.500 226.500 177.500 226.500 L 192.500 226.500 192.799 219.590 C 193.177 210.861,193.481 211.031,177.500 211.031 C 170.350 211.031,163.915 211.402,163.201 211.855 M84.419 228.350 C 84.129 229.106,84.029 232.374,84.196 235.612 L 84.500 241.500 123.000 241.500 L 161.500 241.500 161.500 234.500 L 161.500 227.500 123.223 227.238 C 91.506 227.021,84.856 227.212,84.419 228.350 M302.425 228.335 C 302.132 229.099,302.029 232.374,302.196 235.612 L 302.500 241.500 317.500 241.500 L 332.500 241.500 332.500 234.500 L 332.500 227.500 317.729 227.223 C 305.858 227.001,302.853 227.219,302.425 228.335 M472.667 242.667 C 472.300 243.033,472.000 246.633,472.000 250.667 L 472.000 258.000 464.500 258.000 L 457.000 258.000 457.000 265.393 C 457.000 273.928,457.076 274.000,466.082 274.000 L 472.000 274.000 472.000 266.000 L 472.000 258.000 479.500 258.000 L 487.000 258.000 487.000 250.000 L 487.000 242.000 480.167 242.000 C 476.408 242.000,473.033 242.300,472.667 242.667 M69.000 250.544 L 69.000 258.088 76.250 257.794 L 83.500 257.500 83.794 250.250 L 84.088 243.000 76.544 243.000 L 69.000 243.000 69.000 250.544 M162.206 250.250 L 162.500 257.500 185.500 258.000 L 208.500 258.500 209.000 266.000 L 209.500 273.500 216.500 273.500 L 223.500 273.500 223.791 265.793 L 224.083 258.086 231.291 257.793 L 238.500 257.500 238.794 250.250 L 239.088 243.000 200.500 243.000 L 161.912 243.000 162.206 250.250 M286.667 243.667 C 286.300 244.033,286.000 247.408,286.000 251.167 L 286.000 258.000 278.542 258.000 L 271.084 258.000 270.792 265.750 L 270.500 273.500 255.250 273.776 L 240.000 274.052 240.000 281.526 L 240.000 289.000 253.918 289.000 C 261.573 289.000,268.548 289.273,269.418 289.607 C 270.834 290.150,271.000 295.886,271.000 344.107 L 271.000 398.000 263.000 398.000 L 255.000 398.000 255.000 405.500 L 255.000 413.000 162.006 413.000 L 69.012 413.000 68.756 335.750 L 68.500 258.500 61.250 258.206 L 54.000 257.912 54.000 327.956 L 54.000 398.000 46.000 398.000 L 38.000 398.000 38.000 405.500 L 38.000 413.000 44.800 413.000 C 53.228 413.000,54.000 413.730,54.000 421.700 L 54.000 428.000 154.500 428.000 L 255.000 428.000 255.000 420.500 L 255.000 413.000 263.000 413.000 L 271.000 413.000 271.000 405.500 L 271.000 398.000 294.000 398.000 L 317.000 398.000 317.000 428.958 L 317.000 459.916 309.250 460.208 L 301.500 460.500 301.207 467.707 L 300.914 474.914 293.707 475.207 L 286.500 475.500 286.500 483.000 L 286.500 490.500 293.500 490.500 L 300.500 490.500 300.792 482.750 L 301.084 475.000 309.042 475.000 L 317.000 475.000 317.000 467.500 L 317.000 460.000 325.000 460.000 L 333.000 460.000 333.000 429.000 L 333.000 398.000 325.000 398.000 L 317.000 398.000 317.000 390.500 L 317.000 383.000 301.500 383.000 L 286.000 383.000 286.000 336.000 L 286.000 289.000 371.500 289.000 L 457.000 289.000 457.000 281.500 L 457.000 274.000 372.700 274.000 C 277.539 274.000,286.000 274.898,286.000 264.800 L 286.000 258.000 293.500 258.000 L 301.000 258.000 301.000 250.500 L 301.000 243.000 294.167 243.000 C 290.408 243.000,287.033 243.300,286.667 243.667 M348.000 250.500 L 348.000 258.000 378.876 258.000 L 409.752 258.000 410.226 252.285 C 411.069 242.123,414.029 243.000,378.883 243.000 L 348.000 243.000 348.000 250.500 M192.887 274.750 C 192.825 275.163,192.712 278.425,192.637 282.000 L 192.500 288.500 185.325 288.792 L 178.150 289.085 177.825 296.792 L 177.500 304.500 185.250 304.174 L 193.000 303.848 193.000 296.424 L 193.000 289.000 200.500 289.000 L 208.000 289.000 208.000 281.500 L 208.000 274.000 200.500 274.000 C 196.375 274.000,192.949 274.337,192.887 274.750 M99.000 335.000 L 99.000 381.000 92.500 381.000 C 88.804 381.000,86.000 381.434,86.000 382.007 C 86.000 382.675,109.100 382.927,154.750 382.757 L 223.500 382.500 223.500 344.000 L 223.500 305.500 216.293 305.207 L 209.086 304.914 208.793 312.707 L 208.500 320.500 193.250 320.776 L 178.000 321.052 177.799 336.276 C 177.688 344.649,177.444 348.012,177.257 343.750 L 176.916 336.000 169.382 336.000 L 161.848 336.000 162.174 344.014 C 162.433 350.373,162.225 351.921,161.168 351.514 C 160.436 351.231,156.723 351.000,152.918 351.000 L 146.000 351.000 146.000 343.542 L 146.000 336.084 153.750 335.792 L 161.500 335.500 161.791 327.793 L 162.083 320.086 169.291 319.793 L 176.500 319.500 176.500 312.500 L 176.500 305.500 169.500 304.927 L 162.500 304.353 169.750 304.177 L 177.000 304.000 177.000 296.500 L 177.000 289.000 138.000 289.000 L 99.000 289.000 99.000 335.000 M224.706 289.627 C 224.318 290.015,224.000 293.408,224.000 297.167 L 224.000 304.000 232.044 304.000 L 240.088 304.000 239.794 296.750 L 239.500 289.500 232.456 289.210 C 228.582 289.051,225.095 289.239,224.706 289.627 M161.000 367.000 C 161.000 367.621,155.520 368.000,146.559 368.000 C 138.010 368.000,131.866 367.592,131.500 367.000 C 131.098 366.350,136.156 366.000,145.941 366.000 C 155.314 366.000,161.000 366.378,161.000 367.000 M23.250 413.662 C 22.419 413.998,22.000 416.486,22.000 421.083 L 22.000 428.000 29.500 428.000 L 37.000 428.000 37.000 420.500 L 37.000 413.000 30.750 413.079 C 27.313 413.122,23.938 413.385,23.250 413.662 M7.235 460.250 L 7.500 490.500 12.434 490.812 C 15.147 490.984,18.410 490.863,19.684 490.543 L 22.000 489.962 22.000 459.981 L 22.000 430.000 14.485 430.000 L 6.971 430.000 7.235 460.250 M177.208 467.750 L 177.500 475.500 208.500 475.500 L 239.500 475.500 239.792 467.750 L 240.084 460.000 208.500 460.000 L 176.916 460.000 177.208 467.750 M29.707 491.744 L 21.914 492.086 22.207 499.293 L 22.500 506.500 154.000 506.500 L 285.500 506.500 285.792 498.750 L 286.084 491.000 161.792 491.201 C 93.431 491.312,33.993 491.556,29.707 491.744 " stroke="none" fill="#000000" fill-rule="evenodd"></path></g></svg>
